!!!COM: Bach, Johann Sebastian
!!!CDT: 1685/02/21/-1750/07/28/
!!!OTL@@DE: Nun komm, der Heiden Heiland
!!!SCT: BWV 36(2)/8
!!!PC#: 28
!!!AGN: chorale
**harm	**kern	**kern	**kern	**kern
*	*ICvox	*ICvox	*ICvox	*ICvox
*	*Ibass	*Itenor	*Ialto	*Isoprn
*	*I"Bass	*I"Tenor	*I"Alto	*I"Soprano
*	*	*oclefC4	*oclefC3	*oclefC1
*	*clefF4	*clefGv2	*clefG2	*clefG2
*k[f#c#]	*k[f#c#]	*k[f#c#]	*k[f#c#]	*k[f#c#]
*b:	*b:	*b:	*b:	*b:
*M4/4	*M4/4	*M4/4	*M4/4	*M4/4
*met(c)	*met(c)	*met(c)	*met(c)	*met(c)
*MM100	*MM100	*MM100	*MM100	*MM100
=1-	=1-	=1-	=1-	=1-
i	4B	4d	4f#	4b
iv6	4G	4B	4e	4b
v	4F#	4c#	4f#	4a
i6	8DL	8BL	8f#L	8ddL
i	8BBJ	8BJ	8f#J	8ddJ
=2	=2	=2	=2	=2
ii%65	4E	4B	4g	4cc#
V7	4F#	4A#	4e	4cc#
i;	2BB;	2F#;	2d;	2b;
=3	=3	=3	=3	=3
i	4BB	4d	4f#	4b
i	8BL	8BL	8f#L	8ddL
viio6/VII	8BJ	8BJ	8g#J	8ddJ
D:V	8AnXL	8c#L	8aL	8eeL
V2	8GnXJ	8c#J	8aJ	8eeJ
I6	4F#	4d	4a	4dd
=4	=4	=4	=4	=4
viio6	4E	4G	4cc#	4ee
I	8DL	8AL	8ddL	8ff#L
V7/IV	8DJ	8cJ	8f#J	8ff#J
IV;	2G;	2B;	2g;	2dd;
=5	=5	=5	=5	=5
I6	4F#	4A	4a	4dd
V6	4C#	4e	4a	4ee
I	4D	4d	4a	4ff#
IV	4G	4B	4b	4dd
=6	=6	=6	=6	=6
b:iio6	4E	4g	4cc#	4ee
V	4F#	4c#	4a#	4cc#
i;	2BB;	2d;	2f#;	2b;
=7	=7	=7	=7	=7
i	4B	4d	4f#	4b
V43/V	4G#	4c#	4e#	4b
v	4F#	4c#	4f#	4a
III6	8F#L	8f#L	8aL	8ddL
vi%7	8G#J	8f#J	8bJ	8ddJ
=8	=8	=8	=8	=8
V65	8A#L	8eL	8f#L	8cc#L
i	8BJ	8dJ	8bJ	8bJ
V(54)	8F#L	8c#L	8bL	8cc#L	
V7	8F#J	8eJ	8a#J	8cc#J
I;	2BB;	2d#;	2f#;	2b;
==	==	==	==	==
*-	*-	*-	*-	*-
!!!YOR1: 371 vierstimmige Choralges&auml;nge von Johann Sebastian Bach, 
!!!YOR2: 4th ed. by Alfred D&ouml;rffel (Leipzig: Breitkopf und H&auml;rtel, 
!!!YOR2: c.1875). 178 pp. Plate "V.A.10".  reprint: J.S. Bach, 371 Four-Part 
!!!YOR4: Chorales (New York: Associated Music Publishers, Inc., c.1940).
!!!SMS: B&H, 4th ed, Alfred D&ouml;rffel, c.1875, plate V.A.10
!!!EED:  Craig Stuart Sapp
!!!EEV:  2009/05/22
